img/clients/achilles.svg

<?xml version="1.0" encoding="UTF-8"?>
<svg width="365px" height="216px" viewBox="0 0 365 216" version="1.1" xmlns="http://www.w3.org/2000/svg" xmlns:xlink="http://www.w3.org/1999/xlink">
    <!-- Generator: Sketch 41.2 (35397) - http://www.bohemiancoding.com/sketch -->
    <title>Slice</title>
    <desc>Created with Sketch.</desc>
    <defs></defs>
    <g id="Page-1" stroke="none" stroke-width="1" fill="none" fill-rule="evenodd">
        <g id="achilles">
            <g id="Layer_1">
                <g id="Group">
                    <path d="M40.1707317,110.065116 L76.1012195,188.204651 L63.1573171,188.204651 L51.3292683,162.753488 L18.5231707,162.753488 L6.47195122,188.204651 L0,188.204651 L36.8231707,110.065116 L40.1707317,110.065116 Z M20.754878,157.84186 L48.8743902,157.84186 L35.0378049,127.47907 L20.754878,157.84186 Z" id="Shape" fill="#454143"></path>
                    <path d="M102.658537,189.544186 C98.8646341,189.544186 95.0707317,188.874419 91.7231707,187.311628 C88.3756098,185.748837 85.4743902,183.739535 82.7963415,181.060465 C80.3414634,178.381395 78.3329268,175.255814 76.7707317,171.683721 C75.4317073,168.111628 74.5390244,164.316279 74.5390244,160.297674 C74.5390244,155.832558 75.4317073,151.590698 76.9939024,147.795349 C78.5560976,143.776744 80.7878049,140.427907 83.4658537,137.525581 C86.1439024,134.623256 89.4914634,132.390698 93.2853659,130.604651 C97.0792683,128.818605 100.873171,128.148837 105.113415,128.148837 C108.460976,128.148837 111.362195,128.595349 114.263415,129.265116 C116.941463,129.934884 119.396341,131.051163 121.404878,132.167442 C123.413415,133.506977 124.97561,134.846512 126.091463,136.632558 C127.207317,138.418605 127.876829,140.204651 127.876829,142.213953 C127.876829,143.106977 127.653659,144 127.207317,144.669767 C126.760976,145.562791 126.091463,146.232558 125.421951,146.67907 C124.752439,147.348837 123.859756,147.795349 122.967073,148.018605 C122.07439,148.465116 121.181707,148.465116 120.065854,148.465116 C118.95,148.465116 118.057317,148.24186 117.164634,148.018605 C116.271951,147.572093 115.602439,147.125581 114.932927,146.455814 C114.263415,145.786047 113.817073,145.116279 113.593902,144.446512 C113.370732,143.776744 113.147561,142.883721 113.147561,141.990698 C113.147561,140.651163 112.92439,139.311628 112.70122,138.195349 C112.478049,137.07907 111.808537,135.962791 111.139024,135.069767 C110.469512,134.176744 109.353659,133.506977 108.014634,133.060465 C106.67561,132.613953 105.113415,132.390698 103.104878,132.390698 C100.426829,132.390698 97.9719512,132.837209 95.9634146,133.953488 C93.954878,135.069767 92.1695122,136.409302 90.6073171,138.418605 C89.045122,140.427907 87.9292683,142.437209 87.2597561,144.893023 C86.5902439,147.348837 86.1439024,150.027907 86.1439024,152.706977 C86.1439024,156.502326 86.5902439,160.074419 87.7060976,163.423256 C88.5987805,166.772093 90.1609756,169.674419 91.9463415,172.353488 C93.7317073,174.809302 95.9634146,176.818605 98.4182927,178.381395 C100.873171,179.944186 103.77439,180.613953 106.89878,180.613953 C109.576829,180.613953 112.031707,180.167442 114.040244,179.274419 C116.04878,178.381395 117.834146,177.265116 119.396341,175.702326 C120.958537,174.139535 122.07439,172.576744 123.190244,170.567442 C124.306098,168.55814 125.19878,166.548837 126.091463,164.316279 L129.662195,165.87907 C128.769512,169.674419 127.430488,172.8 125.645122,175.925581 C123.859756,178.827907 122.07439,181.283721 119.619512,183.293023 C117.164634,185.302326 114.709756,186.865116 111.808537,187.981395 C109.130488,189.097674 106.006098,189.544186 102.658537,189.544186 Z" id="Shape" fill="#454143"></path>
                    <path d="M148.408537,140.204651 C151.979268,136.186047 155.55,133.283721 159.567073,131.274419 C163.360976,129.265116 167.378049,128.372093 171.395122,128.372093 C173.403659,128.372093 175.412195,128.818605 177.197561,129.711628 C178.982927,130.604651 180.545122,131.944186 181.884146,133.506977 C183.223171,135.069767 184.339024,137.07907 185.008537,139.088372 C185.678049,141.32093 186.12439,143.553488 186.12439,146.009302 L186.12439,188.427907 L174.519512,188.427907 L174.519512,148.018605 C174.519512,144.223256 173.626829,141.097674 171.841463,139.088372 C170.056098,137.07907 167.82439,135.962791 164.923171,135.962791 C162.468293,135.962791 159.790244,136.855814 156.889024,138.418605 C153.987805,139.981395 151.086585,141.990698 148.408537,144.669767 L148.408537,188.427907 L136.803659,188.427907 L136.803659,102.474419 L145.060976,99.1255814 L148.408537,99.1255814 L148.408537,140.204651 Z" id="Shape" fill="#454143"></path>
                    <polygon id="Shape" fill="#454143" points="196.390244 131.497674 204.647561 128.148837 207.995122 128.148837 207.995122 188.204651 196.390244 188.204651"></polygon>
                    <polygon id="Shape" fill="#454143" points="230.535366 188.427907 218.930488 188.427907 218.930488 102.474419 227.187805 99.1255814 230.535366 99.1255814"></polygon>
                    <polygon id="Shape" fill="#454143" points="253.07561 188.427907 241.470732 188.427907 241.470732 102.474419 249.728049 99.1255814 253.07561 99.1255814"></polygon>
                    <path d="M289.452439,189.544186 C285.435366,189.544186 281.641463,188.874419 278.293902,187.311628 C274.723171,185.748837 271.821951,183.739535 269.143902,181.283721 C266.465854,178.827907 264.457317,175.702326 262.895122,172.130233 C261.332927,168.781395 260.663415,164.986047 260.663415,160.967442 C260.663415,156.27907 261.332927,151.813953 262.671951,147.795349 C264.010976,143.776744 266.019512,140.427907 268.47439,137.302326 C270.929268,134.4 274.053659,132.167442 277.62439,130.381395 C281.195122,128.595349 285.212195,127.925581 289.452439,127.925581 C293.246341,127.925581 296.817073,128.595349 300.164634,129.934884 C303.289024,131.274419 306.190244,133.060465 308.421951,135.293023 C310.653659,137.525581 312.439024,140.204651 313.778049,143.106977 C315.117073,146.009302 315.786585,149.134884 315.786585,152.483721 L271.821951,152.483721 C271.821951,156.502326 272.268293,160.074419 273.384146,163.423256 C274.5,166.772093 275.839024,169.674419 277.62439,172.130233 C279.409756,174.586047 281.641463,176.595349 284.319512,177.934884 C286.77439,179.274419 289.67561,179.944186 292.8,179.944186 C295.254878,179.944186 297.709756,179.497674 300.164634,178.827907 C302.396341,177.934884 304.628049,176.818605 306.413415,175.47907 C308.19878,174.139535 309.984146,172.576744 311.323171,170.790698 C312.662195,169.004651 313.554878,167.218605 314.22439,165.432558 L317.571951,166.995349 C316.679268,169.897674 315.340244,172.8 313.554878,175.47907 C311.769512,178.15814 309.537805,180.390698 306.859756,182.4 C304.404878,184.409302 301.503659,185.972093 298.602439,187.088372 C295.478049,189.097674 292.576829,189.544186 289.452439,189.544186 Z M301.057317,148.24186 C301.057317,146.009302 300.610976,144 299.941463,141.990698 C299.04878,139.981395 298.156098,138.418605 296.593902,137.07907 C295.254878,135.739535 293.692683,134.623256 291.684146,133.730233 C289.89878,132.837209 287.890244,132.613953 285.658537,132.613953 C283.873171,132.613953 282.087805,133.060465 280.52561,133.730233 C278.963415,134.623256 277.40122,135.516279 276.285366,137.07907 C274.946341,138.418605 274.053659,140.204651 273.160976,141.990698 C272.268293,144 271.821951,146.009302 271.59878,148.24186 L301.057317,148.24186 Z" id="Shape" fill="#454143"></path>
                    <path d="M341.67439,185.525581 C343.236585,185.525581 344.79878,185.302326 346.137805,184.855814 C347.476829,184.409302 348.592683,183.739535 349.708537,182.846512 C350.60122,181.953488 351.493902,181.060465 351.940244,179.944186 C352.386585,178.827907 352.832927,177.711628 352.832927,176.818605 C352.832927,175.032558 352.386585,173.469767 351.493902,172.130233 C350.60122,170.790698 349.485366,169.674419 347.923171,168.55814 C346.360976,167.44186 344.79878,166.548837 342.790244,165.655814 C341.004878,164.762791 338.996341,163.869767 336.987805,162.976744 C334.979268,162.083721 333.193902,160.967442 331.185366,160.074419 C329.4,158.95814 327.614634,157.84186 326.052439,156.27907 C324.490244,154.716279 323.37439,153.153488 322.481707,151.367442 C321.589024,149.581395 321.142683,147.348837 321.142683,144.893023 C321.142683,142.437209 321.589024,140.427907 322.704878,138.418605 C323.597561,136.409302 325.159756,134.623256 326.945122,133.283721 C328.730488,131.72093 330.962195,130.604651 333.417073,129.934884 C335.871951,129.04186 338.55,128.595349 341.45122,128.595349 C343.459756,128.595349 345.245122,128.818605 347.030488,129.04186 C348.815854,129.265116 350.378049,129.934884 351.940244,130.604651 C353.502439,131.497674 355.287805,132.613953 356.85,133.953488 C358.412195,135.293023 360.197561,137.302326 361.982927,139.534884 L357.742683,143.330233 C355.510976,139.75814 353.056098,136.855814 350.378049,135.069767 C347.7,133.283721 344.57561,132.390698 341.45122,132.390698 C339.889024,132.390698 338.326829,132.613953 336.987805,133.060465 C335.64878,133.506977 334.532927,133.953488 333.417073,134.846512 C332.52439,135.516279 331.631707,136.409302 331.185366,137.302326 C330.739024,138.195349 330.292683,139.311628 330.292683,140.427907 C330.292683,142.213953 330.739024,143.776744 331.854878,145.116279 C332.747561,146.455814 334.086585,147.572093 335.64878,148.688372 C337.210976,149.804651 339.219512,150.697674 341.228049,151.590698 C343.236585,152.483721 345.468293,153.376744 347.476829,154.269767 C349.708537,155.162791 351.717073,156.27907 353.72561,157.395349 C355.734146,158.511628 357.519512,159.627907 359.304878,161.190698 C360.867073,162.530233 362.206098,164.316279 363.09878,166.102326 C363.991463,167.888372 364.660976,170.12093 364.660976,172.576744 C364.660976,175.032558 364.214634,177.488372 363.321951,179.497674 C362.429268,181.730233 361.090244,183.516279 359.081707,185.07907 C357.296341,186.64186 354.841463,187.981395 351.940244,188.874419 C349.039024,189.767442 345.914634,190.213953 342.120732,190.213953 C340.335366,190.213953 338.55,189.990698 336.764634,189.767442 C334.979268,189.544186 333.193902,188.874419 331.185366,188.204651 C329.4,187.311628 327.391463,186.195349 325.606098,184.855814 C323.820732,183.516279 322.035366,181.506977 320.25,179.274419 L324.936585,175.032558 C326.27561,177.04186 327.837805,178.827907 328.953659,180.167442 C330.292683,181.506977 331.631707,182.846512 332.970732,183.739535 C334.309756,184.632558 335.64878,185.302326 337.210976,185.748837 C338.55,185.302326 340.112195,185.525581 341.67439,185.525581 Z" id="Shape" fill="#454143"></path>
                    <g transform="translate(183.000000, 0.000000)" id="Shape" fill="#D4222B">
                        <path d="M33.0292683,58.0465116 C39.054878,48.4465116 39.054878,37.9534884 33.0292683,26.5674419 C26.7804878,15.1813953 22.9865854,6.25116279 21.647561,0 L21.647561,85.2837209 C22.3170732,79.4790698 26.1109756,70.3255814 33.0292683,58.0465116"></path>
                        <path d="M16.2914634,37.5069767 C16.0682927,41.7488372 12.497561,50.9023256 5.35609756,64.5209302 C-1.11585366,76.8 -0.892682927,87.7395349 6.02560976,97.3395349 C8.4804878,101.804651 12.0512195,110.734884 16.0682927,124.130233 L16.0682927,37.5069767 L16.2914634,37.5069767 Z"></path>
                    </g>
                </g>
            </g>
        </g>
    </g>
</svg>

<svg width="365" height="216" viewBox="0 0 365 216" xmlns="http://www.w3.org/2000/svg">
  <title>
    Achilles
  </title>
  <g fill="none" fill-rule="evenodd">
    <path d="M40.17 110.065l35.93 78.14H63.158L51.33 162.753H18.522l-12.05 25.452H0l36.823-78.14h3.348zm-19.415 47.777h28.12L35.037 127.48 20.755 157.84zM102.66 189.544c-3.795 0-7.59-.67-10.937-2.232-3.347-1.563-6.25-3.572-8.927-6.252-2.455-2.68-4.463-5.804-6.025-9.376-1.338-3.572-2.23-7.368-2.23-11.386 0-4.465.892-8.707 2.454-12.503 1.562-4.018 3.794-7.367 6.472-10.27 2.678-2.902 6.025-5.134 9.82-6.92 3.793-1.786 7.587-2.456 11.827-2.456 3.348 0 6.25.445 9.15 1.115 2.678.67 5.133 1.786 7.142 2.902 2.008 1.34 3.57 2.68 4.686 4.466 1.117 1.786 1.787 3.572 1.787 5.58 0 .894-.223 1.787-.67 2.457-.446.893-1.116 1.563-1.785 2.01-.67.67-1.562 1.115-2.455 1.34-.893.445-1.785.445-2.9.445-1.117 0-2.01-.223-2.902-.446-.893-.448-1.563-.894-2.232-1.564-.67-.67-1.116-1.34-1.34-2.01-.222-.67-.445-1.562-.445-2.455 0-1.34-.224-2.678-.447-3.795-.222-1.116-.89-2.232-1.56-3.125-.67-.893-1.786-1.563-3.125-2.01-1.34-.446-2.902-.67-4.91-.67-2.678 0-5.133.447-7.142 1.563-2.008 1.117-3.793 2.456-5.356 4.466-1.562 2.008-2.678 4.017-3.347 6.473-.67 2.456-1.116 5.135-1.116 7.814 0 3.795.446 7.367 1.562 10.716.893 3.35 2.455 6.25 4.24 8.93 1.786 2.456 4.017 4.466 6.472 6.028 2.455 1.564 5.356 2.234 8.48 2.234 2.68 0 5.134-.447 7.142-1.34 2.01-.893 3.794-2.01 5.356-3.572 1.563-1.562 2.678-3.125 3.794-5.135s2.01-4.018 2.9-6.25l3.572 1.562c-.892 3.794-2.232 6.92-4.017 10.046-1.785 2.902-3.57 5.358-6.025 7.367-2.455 2.01-4.91 3.572-7.81 4.688-2.68 1.118-5.804 1.564-9.15 1.564zM148.41 140.205c3.57-4.02 7.14-6.92 11.157-8.93 3.794-2.01 7.81-2.903 11.828-2.903 2.01 0 4.017.447 5.803 1.34 1.785.893 3.347 2.232 4.686 3.795 1.34 1.563 2.455 3.572 3.125 5.58.668 2.234 1.114 4.466 1.114 6.922v42.418H174.52v-40.41c0-3.795-.893-6.92-2.68-8.93-1.784-2.01-4.016-3.125-6.917-3.125-2.455 0-5.133.893-8.034 2.456-2.902 1.56-5.803 3.57-8.48 6.25v43.758h-11.606v-85.954l8.257-3.348h3.35v41.08zM196.39 131.498l8.258-3.35h3.347v60.057H196.39M230.535 188.428H218.93v-85.954l8.258-3.348h3.347M253.076 188.428H241.47v-85.954l8.258-3.348h3.348M289.452 189.544c-4.017 0-7.81-.67-11.158-2.232-3.57-1.563-6.472-3.572-9.15-6.028-2.678-2.456-4.687-5.582-6.25-9.154-1.56-3.35-2.23-7.144-2.23-11.163 0-4.688.67-9.153 2.008-13.172 1.34-4.018 3.348-7.367 5.802-10.493 2.455-2.902 5.58-5.135 9.15-6.92 3.57-1.787 7.588-2.456 11.828-2.456 3.794 0 7.365.67 10.713 2.01 3.124 1.338 6.025 3.124 8.257 5.357 2.232 2.233 4.017 4.912 5.356 7.814 1.34 2.902 2.01 6.028 2.01 9.377H271.82c0 4.018.446 7.59 1.562 10.94 1.116 3.348 2.455 6.25 4.24 8.706 1.786 2.456 4.017 4.465 6.696 5.805 2.454 1.34 5.356 2.01 8.48 2.01 2.455 0 4.91-.447 7.365-1.117 2.23-.893 4.463-2.01 6.248-3.35 1.786-1.338 3.57-2.9 4.91-4.687 1.34-1.785 2.232-3.57 2.9-5.357l3.35 1.562c-.894 2.903-2.233 5.805-4.018 8.484-1.785 2.678-4.017 4.91-6.695 6.92-2.455 2.01-5.356 3.572-8.258 4.688-3.124 2.01-6.025 2.456-9.15 2.456zm11.605-41.302c0-2.233-.446-4.242-1.116-6.25-.89-2.01-1.784-3.573-3.346-4.913-1.34-1.34-2.9-2.457-4.91-3.35-1.785-.893-3.794-1.116-6.025-1.116-1.787 0-3.572.446-5.134 1.116-1.563.893-3.125 1.786-4.24 3.35-1.34 1.34-2.232 3.125-3.125 4.91-.892 2.01-1.338 4.02-1.56 6.252h29.457zM341.674 185.526c1.563 0 3.125-.224 4.464-.67 1.34-.447 2.455-1.116 3.57-2.01.893-.893 1.786-1.786 2.232-2.902.447-1.116.893-2.232.893-3.125 0-1.787-.446-3.35-1.34-4.69-.892-1.34-2.008-2.456-3.57-3.572-1.562-1.116-3.124-2.01-5.133-2.902-1.785-.893-3.794-1.786-5.802-2.68-2.01-.892-3.794-2.01-5.803-2.902-1.785-1.116-3.57-2.232-5.133-3.795-1.562-1.564-2.678-3.127-3.57-4.913-.893-1.786-1.34-4.018-1.34-6.474 0-2.456.447-4.465 1.563-6.474.893-2.01 2.455-3.797 4.24-5.136 1.785-1.563 4.017-2.68 6.472-3.35 2.455-.892 5.133-1.34 8.034-1.34 2.01 0 3.795.225 5.58.448 1.786.223 3.348.893 4.91 1.563 1.562.893 3.348 2.01 4.91 3.348 1.562 1.34 3.348 3.35 5.133 5.582l-4.24 3.795c-2.232-3.572-4.687-6.474-7.365-8.26-2.678-1.786-5.802-2.68-8.927-2.68-1.56 0-3.123.224-4.462.67-1.34.447-2.455.893-3.57 1.787-.894.67-1.786 1.562-2.233 2.455-.446.893-.892 2.01-.892 3.126 0 1.786.446 3.35 1.562 4.688.893 1.34 2.232 2.456 3.794 3.572 1.56 1.117 3.57 2.01 5.578 2.903 2.01.894 4.24 1.787 6.25 2.68 2.23.893 4.24 2.01 6.248 3.125 2.008 1.117 3.794 2.233 5.58 3.796 1.56 1.34 2.9 3.126 3.793 4.912.89 1.786 1.56 4.02 1.56 6.475 0 2.456-.445 4.91-1.338 6.92-.893 2.233-2.232 4.02-4.24 5.582-1.786 1.562-4.24 2.9-7.142 3.794-2.9.893-6.025 1.34-9.82 1.34-1.785 0-3.57-.223-5.355-.447-1.786-.223-3.57-.893-5.58-1.562-1.785-.893-3.794-2.01-5.58-3.35-1.784-1.34-3.57-3.348-5.355-5.58l4.687-4.242c1.34 2.01 2.9 3.795 4.017 5.134 1.34 1.34 2.678 2.68 4.017 3.573 1.34.893 2.68 1.562 4.24 2.01 1.34-.448 2.902-.224 4.464-.224z" fill="#454143"/>
    <g fill="#D4222B">
      <path d="M216.03 58.047c6.025-9.6 6.025-20.094 0-31.48C209.78 15.18 205.986 6.25 204.647 0v85.284c.67-5.805 4.463-14.958 11.38-27.237M199.29 37.507c-.222 4.242-3.792 13.395-10.934 27.014-6.472 12.28-6.25 23.22.67 32.82 2.454 4.465 6.025 13.395 10.042 26.79V37.507h.223z"/>
    </g>
  </g>
</svg>
